svgs/regular/film-canister.svg

<svg xmlns="http://www.w3.org/2000/svg" viewBox="0 0 576 512"><!--! Font Awesome Pro 6.6.0 by @fontawesome - https://fontawesome.com License - https://fontawesome.com/license (Commercial License) Copyright 2024 Fonticons, Inc. --><path d="M96 32c0-17.7 14.3-32 32-32l96 0c17.7 0 32 14.3 32 32l40 0 32 0c13.3 0 24 10.7 24 24s-10.7 24-24 24l-8 0 0 384 8 0c13.3 0 24 10.7 24 24s-10.7 24-24 24l-32 0L56 512l-32 0c-13.3 0-24-10.7-24-24s10.7-24 24-24l8 0L32 80l-8 0C10.7 80 0 69.3 0 56S10.7 32 24 32l32 0 40 0zM80 80l0 384 192 0 0-384L80 80zm464 48c17.7 0 32 14.3 32 32l0 128c0 17.7-14.3 32-32 32s-32 14.3-32 32l0 32c0 17.7-14.3 32-32 32l-128 0 0-288 192 0zM392 184l0 16c0 8.8 7.2 16 16 16l16 0c8.8 0 16-7.2 16-16l0-16c0-8.8-7.2-16-16-16l-16 0c-8.8 0-16 7.2-16 16zm112-16c-8.8 0-16 7.2-16 16l0 16c0 8.8 7.2 16 16 16l16 0c8.8 0 16-7.2 16-16l0-16c0-8.8-7.2-16-16-16l-16 0zM392 344l0 16c0 8.8 7.2 16 16 16l16 0c8.8 0 16-7.2 16-16l0-16c0-8.8-7.2-16-16-16l-16 0c-8.8 0-16 7.2-16 16z"/></svg>

<svg xmlns="http://www.w3.org/2000/svg" viewBox="0 0 576 512"><!--! Font Awesome Pro 6.4.0 by @fontawesome - https://fontawesome.com License - https://fontawesome.com/license (Commercial License) Copyright 2023 Fonticons, Inc. --><path d="M96 32c0-17.7 14.3-32 32-32h96c17.7 0 32 14.3 32 32h40 32c13.3 0 24 10.7 24 24s-10.7 24-24 24h-8V464h8c13.3 0 24 10.7 24 24s-10.7 24-24 24H296 56 24c-13.3 0-24-10.7-24-24s10.7-24 24-24h8V80H24C10.7 80 0 69.3 0 56S10.7 32 24 32H56 96zM80 80V464H272V80H80zm464 48c17.7 0 32 14.3 32 32V288c0 17.7-14.3 32-32 32s-32 14.3-32 32v32c0 17.7-14.3 32-32 32H352V128H544zM392 184v16c0 8.8 7.2 16 16 16h16c8.8 0 16-7.2 16-16V184c0-8.8-7.2-16-16-16H408c-8.8 0-16 7.2-16 16zm112-16c-8.8 0-16 7.2-16 16v16c0 8.8 7.2 16 16 16h16c8.8 0 16-7.2 16-16V184c0-8.8-7.2-16-16-16H504zM392 344v16c0 8.8 7.2 16 16 16h16c8.8 0 16-7.2 16-16V344c0-8.8-7.2-16-16-16H408c-8.8 0-16 7.2-16 16z"/></svg>
